X:86
T:Newmarket Tom.  ThoH.086
Q:1/4=100
M:C
L:1/8
B:Thompson's Compleat Collection of 120 Favourite Hornpipes.
Z:Village Music Project, Simon Wilson 2016
O:England.
K:Bb
F/E/|DFBBB3c/d/|cAFFF3E|DFBd GBdg|fdcB (A//B/<c) FE|DFBBTB3c/d/|cAGFe3f/g/|
fdcB BAGF|GBBBB3:||:d/c/|Bdfff3g/a/|bggf=e3(f//g//a/)|g=eccc3B|
AcAF =EG C c/B/|Acfff3=e/d/|=egggg3g/a/|bgg=e eccB|AGF=EF3!D.C.!|]

